!!!OTL: Schatz Morgenroth.
!!!OTL-incipit: FRUH FRUH DES MORGENS FRUH
!!!COM: Volksweise
!!!ARE: Europa, Mitteleuropa, Deutschland
!!!SCT: F0653
!!!TXL: @@DE
!!!YEM: Copyright 1995, estate of Helmut Schaffrath.
**kern	**text
*ICvox	*
*clefG2	*
*M3/4	*
*k[b-]	*
*F:	*
=1	=1
!LO:TX:a:t=Menuettartig.	!
!LO:TX:a:t=P:only the highest voice encoded:problem	!
{(>8cc	1._Fruh,
8b-/)	.
(>8a	frug,
8cc)	.
4ff	des
=2	=2
4.cc/	Mor-
8b-/	-gens
4a}	fruh,
=3	=3
{(8f	als
8dd/)	.
4dd	ich
8ff/L	vom
8ddJ	.
=4	=4
4.cc	Schlaf
8dd	erwacht,
4cc}	.
=5	=5
{(8cc	ging
8b-)	ich
4b-/	mei-
4cc/	-nem
=6	=6
8.aL	Schätʒ-
16g	.
8aJ	.
8b-/	-chen
4cc/}	nach
=7	=7
{(>8cc/	in
8b-/)	den
4a	grü-
4b-/	-nen
=8	=8
4a	Wald.
4r	.
4r}	.
==	==
!!!AGN: Staende -, Jaeger - Lied
!!!ONB: ESAC (Essen Associative Code) Database: FINK
!!!AMT: simple triple
!!!AIN: vox
!!!EED: Helmut Schaffrath
!!!EEV: 1.0
!!!RDF**kern: > = above
!!!GTL: Soldaten- und Jaegerlieder
!!Text: Volkslied
!!!source: Musikalischer Hausschatz der Deutschen. Eine Sammlung von über 1000 Liedern und Gesängen mit Singstimmen und Klavierbegleitung. Leipzig, Litterarisches Verlags-Haus.
!!!page: 429
!!!URL-scan: https://www.digitale-sammlungen.de/en/view/bsb11144622?page=396
!!!ENC: Anna Maria Matuszewska
!!!EEV: 2024/08/05
*-	*-
